X:16
T: A kibédi nagy hegy alatt
M:1/4
L:1/4
K:G
d/d/c/B/ e<e | d2 A2 |
d/d/d/c/ B<A | F2 D2 |
GABG | A<D B d |
d/e/d/c/ B<A | G2 G z |
W: A kibédi nagy hegy alatt
W: Három forrás átok alatt,
W: Aki abból vizet iszik,
W: Babájától elbúcsuzik.
W:
W: Mer' én abból vizet ittam,
W: s A babámtól elbúcsuztam.
W: Úgy elbúcsuztam szegénytől,
W: Mint az elmúlt az esztendőtől.
W: 
W: Galiczia közepébe
W: Van egy kaszárnya építve.
W: Abba' vannak a legények,
W: Abba' búsulnak szegények.
W: 
W: Sárga lábú kis pacsirta,
W: Ne szállj ablakomba sírva.
W: Ne szállj, ne szállj oda sírva,
W: Katonának vagyok írva.

